public/svg/broker-info-three-active.svg

<svg width="70" height="70" viewBox="0 0 70 70" fill="none" xmlns="http://www.w3.org/2000/svg">
<path d="M68.6397 44.5703H1.36026C-0.454102 44.6425 -0.452735 47.2332 1.36026 47.3047H8.11541C12.8486 59.0292 21.5321 66.4401 34.6462 69.9534C34.8781 70.0155 35.1222 70.0155 35.3541 69.9534C48.4689 66.44 57.1526 59.0289 61.8856 47.3047H68.6397C70.4541 47.2324 70.4527 44.642 68.6397 44.5703ZM52.8613 47.3047C52.4962 48.0022 52.1117 48.6739 51.7111 49.313C48.0463 55.161 42.5775 59.1563 34.9998 61.518C27.4223 59.1563 21.9534 55.161 18.2886 49.313C17.888 48.6739 17.5035 48.0024 17.1384 47.3048H52.8613V47.3047ZM35 67.2162C23.3589 64.0097 15.5166 57.4856 11.0809 47.3047H14.084C14.6605 48.5224 15.2945 49.6847 15.9712 50.7646C20.0661 57.2991 26.1615 61.7124 34.6055 64.257C34.8628 64.3345 35.1373 64.3345 35.3946 64.257C43.8387 61.7125 49.9341 57.2991 54.029 50.7648C54.7057 49.6847 55.3396 48.5224 55.9161 47.3047H58.9203C54.4845 57.4855 46.6418 64.0095 35 67.2162Z" fill="#ffffff"/>
<path d="M1.36031 25.4297H68.6397C70.4541 25.3574 70.4527 22.767 68.6397 22.6953H66.3412C66.4154 20.7225 66.4515 18.6543 66.4515 16.4063C66.4515 15.6512 65.8392 15.0391 65.0841 15.0391C57.544 15.0391 51.4096 8.90587 51.4096 1.36719C51.4096 0.61209 50.7973 0 50.0422 0H19.9579C19.2026 0 18.5904 0.61209 18.5904 1.36719C18.5904 8.90587 12.4561 15.0391 4.91586 15.0391C4.16061 15.0391 3.54839 15.6512 3.54839 16.4063C3.54839 18.6572 3.58449 20.7253 3.65847 22.6953H1.36031C-0.454187 22.7675 -0.452683 25.3582 1.36031 25.4297ZM6.2877 17.7166C14.2458 17.0554 20.6091 10.6913 21.2689 2.73438H48.731C49.3909 10.6913 55.7541 17.0554 63.7123 17.7166C63.7006 19.4696 63.6649 21.114 63.6042 22.6953H60.8728C60.8921 22.1902 60.9088 21.6761 60.9227 21.1579C60.9397 20.5311 60.5278 19.973 59.9236 19.8043C53.4982 18.0098 48.4035 12.9012 46.628 6.472C46.4643 5.87932 45.9249 5.46875 45.3098 5.46875H41.1531C39.3387 5.54108 39.3401 8.13149 41.1531 8.20313H44.2954C46.4474 14.7364 51.6323 19.9422 58.1569 22.1219C58.1502 22.3143 58.1432 22.5054 58.1358 22.6953H11.8641C11.8567 22.5054 11.8497 22.3143 11.843 22.1219C18.3675 19.9422 23.5525 14.7364 25.7047 8.20313H28.846C30.6604 8.13094 30.659 5.54026 28.846 5.46875H24.6901C24.075 5.46875 23.5357 5.87932 23.372 6.472C21.5965 12.9012 16.5019 18.01 10.0764 19.8043C9.4724 19.973 9.06052 20.5308 9.07734 21.1577C9.09115 21.6757 9.10783 22.1899 9.12712 22.6952H6.39532C6.33488 21.1158 6.29933 19.4715 6.2877 17.7166Z" fill="#ffffff"/>
<path d="M34.9994 8.20313C36.8136 8.13094 36.8122 5.54025 34.9994 5.46875H34.9984C33.184 5.54121 33.1865 8.13176 34.9994 8.20313Z" fill="#ffffff"/>
<path d="M28.896 32.085C29.3253 32.085 29.694 32.176 30.002 32.358C30.3147 32.54 30.555 32.82 30.723 33.198C30.8957 33.576 30.982 34.059 30.982 34.647V38H29.505V34.913C29.505 34.3577 29.4257 33.9353 29.267 33.646C29.113 33.3567 28.8213 33.212 28.392 33.212C28.1587 33.212 27.9393 33.275 27.734 33.401C27.5287 33.527 27.363 33.716 27.237 33.968C27.1157 34.2153 27.055 34.5303 27.055 34.913V38H25.669V34.913C25.669 34.3577 25.5733 33.9353 25.382 33.646C25.1953 33.3567 24.9153 33.212 24.542 33.212C24.304 33.212 24.0847 33.2727 23.884 33.394C23.6833 33.5153 23.5223 33.702 23.401 33.954C23.2797 34.206 23.219 34.5257 23.219 34.913V38H21.735V32.253H23.219V33.114C23.2703 32.9693 23.3847 32.8177 23.562 32.659C23.744 32.5003 23.9703 32.365 24.241 32.253C24.5117 32.141 24.808 32.085 25.13 32.085C25.48 32.085 25.7693 32.1503 25.998 32.281C26.2313 32.407 26.4157 32.5657 26.551 32.757C26.691 32.9483 26.7937 33.1397 26.859 33.331C26.9243 33.1397 27.0503 32.9483 27.237 32.757C27.4283 32.5657 27.6663 32.407 27.951 32.281C28.2357 32.1503 28.5507 32.085 28.896 32.085ZM35.2718 38.168C34.6698 38.168 34.1331 38.0373 33.6618 37.776C33.1951 37.51 32.8288 37.1507 32.5628 36.698C32.2968 36.2407 32.1638 35.7227 32.1638 35.144C32.1638 34.5653 32.2968 34.045 32.5628 33.583C32.8288 33.121 33.1951 32.757 33.6618 32.491C34.1331 32.2203 34.6698 32.085 35.2718 32.085C35.8738 32.085 36.4058 32.2203 36.8678 32.491C37.3298 32.757 37.6915 33.121 37.9528 33.583C38.2188 34.045 38.3518 34.5653 38.3518 35.144C38.3518 35.7227 38.2188 36.2407 37.9528 36.698C37.6915 37.1507 37.3298 37.51 36.8678 37.776C36.4058 38.0373 35.8738 38.168 35.2718 38.168ZM35.2718 36.908C35.6078 36.908 35.8995 36.831 36.1468 36.677C36.3941 36.523 36.5855 36.313 36.7208 36.047C36.8561 35.781 36.9238 35.4777 36.9238 35.137C36.9238 34.7963 36.8561 34.493 36.7208 34.227C36.5855 33.9563 36.3941 33.7417 36.1468 33.583C35.8995 33.4243 35.6078 33.345 35.2718 33.345C34.9358 33.345 34.6418 33.4243 34.3898 33.583C34.1425 33.7417 33.9488 33.9563 33.8088 34.227C33.6735 34.493 33.6058 34.7963 33.6058 35.137C33.6058 35.4777 33.6735 35.781 33.8088 36.047C33.9488 36.313 34.1425 36.523 34.3898 36.677C34.6418 36.831 34.9358 36.908 35.2718 36.908ZM43.0538 32.085C43.4412 32.085 43.8168 32.1643 44.1808 32.323C44.5448 32.4817 44.8435 32.736 45.0768 33.086C45.3148 33.4313 45.4338 33.8817 45.4338 34.437V38H43.9288V34.71C43.9288 34.192 43.8052 33.8117 43.5578 33.569C43.3152 33.3217 43.0002 33.198 42.6128 33.198C42.3562 33.198 42.1112 33.2703 41.8778 33.415C41.6445 33.5597 41.4532 33.7557 41.3038 34.003C41.1592 34.2503 41.0868 34.535 41.0868 34.857V38H39.5888V32.253H41.0868V33.219C41.1288 33.0603 41.2408 32.8947 41.4228 32.722C41.6095 32.5447 41.8452 32.3953 42.1298 32.274C42.4145 32.148 42.7225 32.085 43.0538 32.085ZM46.4413 32.253H47.5193V29.894H49.0033V32.253H50.4243V33.513H49.0033V35.97C49.0033 36.278 49.0546 36.509 49.1573 36.663C49.2646 36.817 49.4163 36.894 49.6123 36.894C49.7756 36.894 49.9039 36.8637 49.9973 36.803C50.0953 36.7423 50.1536 36.7003 50.1723 36.677L50.7253 37.762C50.6973 37.79 50.6156 37.8367 50.4803 37.902C50.3449 37.9673 50.1699 38.028 49.9553 38.084C49.7406 38.14 49.4956 38.168 49.2203 38.168C48.7349 38.168 48.3289 38.0233 48.0023 37.734C47.6803 37.4447 47.5193 36.992 47.5193 36.376V33.513H46.4413V32.253ZM55.1888 32.085C55.5714 32.085 55.9448 32.1643 56.3088 32.323C56.6728 32.4817 56.9714 32.736 57.2048 33.086C57.4428 33.4313 57.5618 33.8817 57.5618 34.437V38H56.0568V34.71C56.0568 34.192 55.9378 33.8117 55.6998 33.569C55.4664 33.3217 55.1561 33.198 54.7688 33.198C54.5121 33.198 54.2648 33.2703 54.0268 33.415C53.7888 33.5597 53.5928 33.7557 53.4388 34.003C53.2894 34.2503 53.2148 34.535 53.2148 34.857V38H51.7098V28.368H53.2148V33.219C53.2568 33.0603 53.3688 32.8947 53.5508 32.722C53.7374 32.5447 53.9731 32.3953 54.2578 32.274C54.5424 32.148 54.8528 32.085 55.1888 32.085ZM61.3813 32.085C61.7033 32.085 62.0019 32.1153 62.2773 32.176C62.5526 32.2367 62.7883 32.309 62.9843 32.393C63.1803 32.477 63.3156 32.547 63.3903 32.603L62.8443 33.527C62.7509 33.4477 62.5829 33.3567 62.3403 33.254C62.1023 33.1513 61.8339 33.1 61.5353 33.1C61.2366 33.1 60.9846 33.1537 60.7793 33.261C60.5739 33.3683 60.4713 33.5293 60.4713 33.744C60.4713 33.954 60.5786 34.122 60.7933 34.248C61.0126 34.374 61.3089 34.479 61.6823 34.563C61.9903 34.633 62.2843 34.731 62.5643 34.857C62.8443 34.9783 63.0729 35.1533 63.2503 35.382C63.4323 35.606 63.5233 35.907 63.5233 36.285C63.5233 36.6443 63.4463 36.9453 63.2923 37.188C63.1429 37.426 62.9423 37.6173 62.6903 37.762C62.4383 37.9067 62.1583 38.0093 61.8503 38.07C61.5469 38.1353 61.2413 38.168 60.9333 38.168C60.5553 38.168 60.2169 38.1307 59.9183 38.056C59.6243 37.9813 59.3793 37.895 59.1833 37.797C58.9873 37.6943 58.8473 37.608 58.7633 37.538L59.3093 36.502C59.4306 36.6187 59.6289 36.7423 59.9043 36.873C60.1796 36.999 60.4876 37.062 60.8283 37.062C61.1923 37.062 61.4839 36.992 61.7033 36.852C61.9226 36.712 62.0323 36.5253 62.0323 36.292C62.0323 36.1193 61.9786 35.9793 61.8713 35.872C61.7686 35.7647 61.6263 35.6783 61.4443 35.613C61.2623 35.5477 61.0593 35.4893 60.8353 35.438C60.6253 35.3867 60.4129 35.3213 60.1983 35.242C59.9883 35.158 59.7946 35.0507 59.6173 34.92C59.4399 34.7847 59.2976 34.6167 59.1903 34.416C59.0829 34.2153 59.0293 33.9797 59.0293 33.709C59.0293 33.3637 59.1389 33.0697 59.3583 32.827C59.5776 32.5843 59.8669 32.4 60.2263 32.274C60.5856 32.148 60.9706 32.085 61.3813 32.085Z" fill="#ffffff"/>
<path d="M5.74139 30.608L4.18039 31.476V30.055L6.44139 28.76H7.21839V38H5.74139V30.608ZM12.0764 29.873C11.7171 29.873 11.3997 29.95 11.1244 30.104C10.8537 30.2533 10.6274 30.4307 10.4454 30.636C10.2634 30.8413 10.1234 31.028 10.0254 31.196C9.93206 31.364 9.88072 31.4573 9.87139 31.476L8.59039 30.902C8.59972 30.86 8.64406 30.755 8.72339 30.587C8.80272 30.4143 8.92639 30.2183 9.09439 29.999C9.26239 29.775 9.47939 29.5557 9.74539 29.341C10.0161 29.1263 10.3427 28.949 10.7254 28.809C11.1127 28.6643 11.5631 28.592 12.0764 28.592C12.6317 28.592 13.1031 28.669 13.4904 28.823C13.8777 28.977 14.1927 29.1893 14.4354 29.46C14.6781 29.726 14.8554 30.0317 14.9674 30.377C15.0794 30.7223 15.1354 31.0863 15.1354 31.469C15.1354 31.861 15.0444 32.2577 14.8624 32.659C14.6851 33.0603 14.4541 33.45 14.1694 33.828C13.8847 34.2013 13.5791 34.5513 13.2524 34.878C12.9257 35.2047 12.6084 35.4963 12.3004 35.753C11.9971 36.0097 11.7357 36.2197 11.5164 36.383C11.3017 36.5463 11.1664 36.649 11.1104 36.691H15.0584V38H8.84239V36.81C8.96372 36.712 9.16206 36.5557 9.43739 36.341C9.71739 36.1263 10.0394 35.872 10.4034 35.578C10.7674 35.2793 11.1361 34.955 11.5094 34.605C11.8874 34.255 12.2374 33.8957 12.5594 33.527C12.8861 33.1583 13.1474 32.7967 13.3434 32.442C13.5441 32.0873 13.6444 31.756 13.6444 31.448C13.6444 30.8693 13.5091 30.4633 13.2384 30.23C12.9677 29.992 12.5804 29.873 12.0764 29.873Z" fill="#ffffff"/>
</svg>

<svg xmlns="http://www.w3.org/2000/svg" width="70" height="70" fill="none"><path fill="#fff" d="M68.64 44.57H1.36c-1.814.072-1.813 2.663 0 2.735h6.755C12.85 59.029 21.532 66.44 34.646 69.953c.232.063.476.063.708 0C48.47 66.44 57.153 59.03 61.886 47.305h6.754c1.814-.073 1.813-2.663 0-2.735M52.86 47.305a30 30 0 0 1-1.15 2.008C48.046 55.161 42.578 59.156 35 61.518c-7.578-2.362-13.047-6.357-16.711-12.205q-.603-.96-1.15-2.008zM35 67.216c-11.641-3.206-19.483-9.73-23.92-19.911h3.004a34 34 0 0 0 1.887 3.46c4.095 6.534 10.19 10.947 18.635 13.492.257.078.531.078.789 0 8.444-2.545 14.54-6.958 18.634-13.492a34 34 0 0 0 1.887-3.46h3.004C54.484 57.485 46.642 64.01 35 67.216M1.36 25.43h67.28c1.814-.073 1.813-2.663 0-2.735H66.34c.074-1.973.11-4.04.11-6.289 0-.755-.612-1.367-1.367-1.367-7.54 0-13.674-6.133-13.674-13.672C51.41.612 50.797 0 50.042 0H19.958c-.755 0-1.368.612-1.368 1.367 0 7.539-6.134 13.672-13.674 13.672-.755 0-1.368.612-1.368 1.367 0 2.251.036 4.32.11 6.29H1.36c-1.814.071-1.813 2.662 0 2.734m4.928-7.713c7.958-.662 14.321-7.026 14.98-14.983h27.463c.66 7.957 7.023 14.321 14.981 14.983a157 157 0 0 1-.108 4.978h-2.731q.03-.759.05-1.537a1.37 1.37 0 0 0-1-1.354c-6.425-1.794-11.52-6.903-13.295-13.332a1.37 1.37 0 0 0-1.318-1.003h-4.157c-1.814.072-1.813 2.662 0 2.734h3.142c2.152 6.533 7.337 11.74 13.862 13.919l-.021.573H11.864l-.021-.573c6.525-2.18 11.71-7.386 13.862-13.919h3.141c1.814-.072 1.813-2.663 0-2.734H24.69c-.615 0-1.154.41-1.318 1.003-1.776 6.43-6.87 11.538-13.296 13.332a1.37 1.37 0 0 0-.999 1.354q.02.778.05 1.537H6.395c-.06-1.58-.096-3.224-.107-4.978"/><path fill="#fff" d="M35 8.203c1.814-.072 1.812-2.663 0-2.734h-.002c-1.814.072-1.811 2.663.001 2.734M28.896 32.085q.645 0 1.106.273.47.273.721.84.26.567.259 1.449V38h-1.477v-3.087q0-.833-.238-1.267-.231-.434-.875-.434-.35 0-.658.189a1.35 1.35 0 0 0-.497.567q-.182.37-.182.945V38h-1.386v-3.087q0-.833-.287-1.267-.28-.434-.84-.434-.357 0-.658.182-.3.182-.483.56-.182.378-.182.959V38h-1.484v-5.747h1.484v.861q.077-.217.343-.455.273-.238.679-.406t.889-.168q.526 0 .868.196.35.19.553.476.21.287.308.574.098-.287.378-.574.287-.287.714-.476.428-.196.945-.196m6.376 6.083q-.903 0-1.61-.392a2.94 2.94 0 0 1-1.1-1.078 3.03 3.03 0 0 1-.398-1.554q0-.868.399-1.561a2.9 2.9 0 0 1 1.099-1.092q.707-.406 1.61-.406t1.596.406q.693.399 1.085 1.092.399.693.399 1.561 0 .869-.4 1.554a2.9 2.9 0 0 1-1.084 1.078q-.693.392-1.596.392m0-1.26q.504 0 .875-.231a1.56 1.56 0 0 0 .574-.63 2 2 0 0 0 .203-.91q0-.51-.203-.91a1.6 1.6 0 0 0-.574-.644 1.6 1.6 0 0 0-.875-.238q-.504 0-.882.238a1.65 1.65 0 0 0-.581.644 2 2 0 0 0-.203.91q0 .51.203.91.21.399.58.63.38.231.883.231m7.782-4.823q.58 0 1.127.238.546.238.896.763.357.518.357 1.351V38h-1.505v-3.29q0-.777-.371-1.141-.364-.37-.945-.371-.386 0-.735.217-.35.217-.574.588a1.66 1.66 0 0 0-.217.854V38h-1.498v-5.747h1.498v.966q.063-.238.336-.497.28-.266.707-.448.426-.189.924-.189m3.387.168h1.078v-2.359h1.484v2.359h1.421v1.26h-1.42v2.457q0 .462.153.693a.52.52 0 0 0 .455.231q.246 0 .385-.091a1 1 0 0 0 .175-.126l.553 1.085q-.042.042-.245.14a2.94 2.94 0 0 1-1.26.266q-.727 0-1.218-.434-.483-.434-.483-1.358v-2.863h-1.078zm8.748-.168q.574 0 1.12.238.545.238.896.763.357.518.357 1.351V38h-1.505v-3.29q0-.777-.357-1.141-.35-.37-.931-.371-.385 0-.742.217t-.588.588q-.224.37-.224.854V38H51.71v-9.632h1.505v4.851q.063-.238.336-.497.28-.266.707-.448.427-.189.93-.189m6.192 0a4.2 4.2 0 0 1 1.603.308q.294.126.406.21l-.546.924q-.14-.12-.504-.273a2 2 0 0 0-.805-.154q-.447 0-.756.161-.308.16-.308.483 0 .315.322.504.33.189.89.315.46.105.881.294.42.181.686.525.273.336.273.903 0 .54-.23.903-.224.358-.603.574a2.7 2.7 0 0 1-.84.308 4.4 4.4 0 0 1-.917.098q-.567 0-1.015-.112a3.7 3.7 0 0 1-.735-.259 2.6 2.6 0 0 1-.42-.259l.546-1.036q.183.175.595.371.414.189.924.189.546 0 .875-.21.33-.21.33-.56a.57.57 0 0 0-.162-.42 1.1 1.1 0 0 0-.427-.259 5 5 0 0 0-.609-.175 6 6 0 0 1-.637-.196 2.6 2.6 0 0 1-.58-.322 1.5 1.5 0 0 1-.428-.504 1.5 1.5 0 0 1-.16-.707q0-.518.328-.882.33-.364.868-.553.54-.189 1.155-.189M5.741 30.608l-1.56.868v-1.421l2.26-1.295h.777V38H5.741zm6.335-.735q-.538 0-.952.231-.405.225-.679.532a3.6 3.6 0 0 0-.42.56l-.154.28-1.28-.574q.014-.063.132-.315.12-.26.371-.588.252-.336.651-.658.407-.322.98-.532.582-.217 1.351-.217.834 0 1.414.231.582.23.945.637.364.4.532.917.168.518.168 1.092 0 .588-.273 1.19a6 6 0 0 1-.693 1.169q-.426.56-.917 1.05-.49.49-.952.875-.454.385-.784.63l-.406.308h3.948V38H8.842v-1.19q.183-.147.595-.469.42-.322.966-.763a22 22 0 0 0 1.106-.973q.567-.526 1.05-1.078.49-.553.784-1.085.301-.532.301-.994 0-.868-.406-1.218-.405-.357-1.162-.357"/></svg>
